X:1
T:Take My Hand and Lead Me, Father
T:Take My Hand and Lead Me, Father
T:William Beery
T:Gertrude A. Foreman Flory, 1889
T:Public Domain Courtesy of the Cyber Hymnal™
T:Public Domain Courtesy of the Cyber Hymnal™
C:William Beery
Z:Public Domain
Z:Courtesy of the Cyber Hymnal™
%%score ( 1 2 ) ( 3 4 )
L:1/8
Q:1/4=100
M:4/4
K:F
V:1 treble 
V:2 treble 
V:3 bass 
V:4 bass 
V:1
"^Solo" FG | A2 c2 F2 A2 | D2 F4 FG | A2 F2 c2 d2 | G6 FG | A2 c2 F2 A2 | D2 B4 dd | c2 A2 G3 F | %8
w: 1.~Take my|hand and lead me,|Fa- ther, Thro’ life’s|storm- y pil- grim-|age; Let Thy|light shine bright- er,|Fa- ther, On its|dark, mys- ter- ious|
w: 2.~For the|road is rough and|ston- y, And I|can- not see the|way; Yet, if|Thou will deign to|guide me, With Thine|own re- splen- dent|
w: 3.~Hold my|hand in Thine, O|Fa- ther, Till I|reach the pearl- y|gates; There I’ll|leave my cross and|bur- den, For my|star- gemmed crown a-|
 F6 FF | B2 B2 d2 B2 | A2 c4 AA | G2 G2 =B2 B2 | c6 BB | A2 c2 F2 A2 | D2 B4 dd | c2 A2 G3 F | %16
w: page. For I|find my feet oft|stray- ing From the|path of truth and|right; Feel the|need of Thy pro-|tec- tion, And Thy|light to shine more|
w: ray, I can|nev- er, nev- er|stum- ble, But shall|walk close by Thy|side. With a|love so pure and|trust- ing, That no|sin can e’er di-|
w: waits. Then I’ll|sing in strains of|rap- ture, In the|light of per- fect|day; Thou didst|deign to guide me,|Fa- ther, And hast|led me all the|
 F6 |:"^Semi Chorus" FF | (z2 A)A x6 | (z2 [Fc])[Fc] x6 |1 [FA]2 [FA]2 [Ac]2 [FA]2 | [EG]6 :|2 %22
w: bright.||||||
w: vide.|Take my|* hand,|* take|my hand, For I|can-|
w: way.||||||
 [FA]2 [FA]2 [EA]2 [EG]2 || F6 z2 |"^Refrain" c4 A4 | A4 F2 [Fc][Fc] | [Fd]2 [Fc]2 [FA]3 [FA] | %27
w: |||||
w: not see the way;|can-|not see|the way; * *||
w: |||||
 [EG]6 z2 | c4 A4 | B4 d2 F[FG] | [FA]2 [FA]2 [EG]3 F | F6 z2 |] %32
w: |||||
w: |Guide me,|Guide me, Guide me,|Guide me, * *||
w: |||||
V:2
 x2 | x8 | x8 | x8 | x8 | x8 | x8 | x8 | x8 | x8 | x8 | x8 | x8 | x8 | x8 | x8 | x6 |: x2 | %18
 (F6 CC C2) | (A6 FF F2) |1 x8 | x6 :|2 x8 || F6 x2 | (AAAA) (FFFF) | (FFFF) (FF) x2 | x8 | x8 | %28
 (AAAA) (FFFF) | (FFFF) (FF)F x | x7 F | F6 x2 |] %32
V:3
 z2 | F,2 [A,C]2 F,2 [A,C]2 | B,,2 ([F,B,D]2 [F,B,D]2) z2 | F,2 [A,C]2 [F,A,]2 [=B,,D,F,G,]2 | %4
w: ||||
 (C,2 [E,G,C]2 [E,G,C]2) z2 | F,2 [A,C]2 F,2 [A,C]2 | B,,2 ([F,B,D]2 [F,B,D]2) z2 | %7
w: |||
 C,2 [F,A,C]2 C,2 [E,G,B,C]2 | (F,2 [A,C]2 [F,A,C]2) z2 | %9
w: ||
 (B,,[F,B,D]) ([F,B,D][F,B,D]) (B,,[F,B,D]) ([F,B,D][F,B,D]) | %10
w: |
 (F,[A,CF]) ([A,CF][A,CF]F,[A,CF])[A,CF][A,CF] | (G,[CE]) ([CE][CE]) (G,[DF]) ([DF][DF]) | %12
w: ||
 (C,[G,CE][G,CE][G,CE] [C,E,G,B,C]2) z2 | F,2 [A,C]2 F,2 [A,C]2 | B,,2 ([F,B,D]2 [F,B,D]2) z2 | %15
w: |||
 C,2 [F,A,C]2 C,2 [E,G,B,C]2 | (F,2 [A,C]2 [F,A,C]2) |: A,A, | z2 F,2 CC x4 | %19
w: |||take * *|
 z2 F,F, F,2 [F,A,][F,A,] x2 |1 [F,C]2 [F,C]2 [F,C]2 [F,C]2 | [C,C]6 :|2 %22
w: my hand, take * *|||
 [C,C]2 [C,C]2 [C,C]2 [C,B,]2 || [F,A,]6 z2 | [F,C][F,C][F,C][F,C] [F,C][F,C][F,C][F,C] | %25
w: ||my hand, Guide me to those heav’n- ly|
 [F,C][F,C][F,C][F,C] [F,A,][F,A,][F,A,][F,A,] | [F,B,]2 [F,A,]2 [F,C]3 [F,C] | [C,C]6 z2 | %28
w: man- sions, Guide me to those man- sions,|There to live through|end-|
 [F,C][F,C][F,C][F,C] [F,C][F,C][F,C][F,C] | [B,,D][B,,D][B,,D][B,,D] [B,,B,][B,,B,][B,,D][B,,D] | %30
w: less day; Guide me to those heav’n- ly|man- sions Guide me to those man- sions|
 [C,C]2 [C,C]2 [C,B,]3 [F,,F,A,] | [F,,F,A,]6 z2 |] %32
w: There to live through|end-|
V:4
 x2 | x8 | x8 | x8 | x8 | x8 | x8 | x8 | x8 | x8 | x8 | x8 | x8 | x8 | x8 | x8 | x6 |: x2 | %18
 A,6 F,F, x2 | C6 x4 |1 x8 | x6 :|2 x8 || x8 | x8 | x8 | x8 | x8 | x8 | x8 | x8 | x8 |] %32

